bootstrap/file-earmark-plus-fill.svg

<svg viewBox="0 0 16 16" xmlns="http://www.w3.org/2000/svg"><path d="M9.293 0H4v0C2.89 0 2 .89 2 2v12 0c0 1.1.89 2 2 2h8v0c1.1 0 2-.9 2-2V4.7v-.001c-.01-.27-.11-.52-.3-.71L9.99.28V.28c-.19-.19-.45-.3-.71-.3Zm.2 3.5v-2l3 3h-2v0c-.56 0-1-.45-1-1Zm-1 3.5v1.5h1.5v0c.27 0 .5.22.5.5 0 .27-.23.5-.5.5h-1.5V11v0c0 .27-.23.5-.5.5 -.28 0-.5-.23-.5-.5V9.5h-1.5v0c-.28 0-.5-.23-.5-.5 0-.28.22-.5.5-.5h1.5V7v0c0-.28.22-.5.5-.5 .27 0 .5.22.5.5Z"/></svg>

<svg xmlns="http://www.w3.org/2000/svg" width="16" height="16" fill="currentColor" class="bi bi-file-earmark-plus-fill" viewBox="0 0 16 16">
  <path d="M9.293 0H4a2 2 0 0 0-2 2v12a2 2 0 0 0 2 2h8a2 2 0 0 0 2-2V4.707A1 1 0 0 0 13.707 4L10 .293A1 1 0 0 0 9.293 0M9.5 3.5v-2l3 3h-2a1 1 0 0 1-1-1M8.5 7v1.5H10a.5.5 0 0 1 0 1H8.5V11a.5.5 0 0 1-1 0V9.5H6a.5.5 0 0 1 0-1h1.5V7a.5.5 0 0 1 1 0"/>
</svg>
